cg/arrow-top-left.svg

<svg viewBox="0 0 24 24" fill="none" xmlns="http://www.w3.org/2000/svg" height="1em" width="1em">
  <path d="M13.4747 5.49475L13.4793 7.49475L8.92175 7.50541L18.5253 17.0896L17.1125 18.5052L7.48259 8.89473L7.49339 13.5088L5.49339 13.5134L5.47467 5.51345L13.4747 5.49475Z" fill="currentColor"/>
</svg>

<svg viewBox="0 0 24 24" fill="none" xmlns="http://www.w3.org/2000/svg" height="1em" width="1em">
  <path d="m13.475 5.495.004 2-4.557.01 9.603 9.585-1.412 1.415-9.63-9.61.01 4.614-2 .004-.018-8 8-.018Z" fill="currentColor"/>
</svg>
